assets/img/braze_icons/bluetooth-off.svg

<svg fill="none" height="24" viewBox="0 0 24 24" width="24" xmlns="http://www.w3.org/2000/svg"><g fill="#801ed7"><path d="m11.5758 1.09442c.3514-.164577.7663-.111032 1.0644.13737l6 5c.228.18999.3598.47144.3598.76822s-.1318.57823-.3598.76822l-2.9183 2.43197c-.4243.3535-1.0549.2962-1.4084-.1281-.3536-.42424-.2963-1.0548.128-1.40837l1.9965-1.66372-3.438-2.86496v2.86496c0 .55229-.4477 1-1 1s-1-.44771-1-1v-5c0-.38802.2245-.74101.5758-.90559z"/><path clip-rule="evenodd" d="m12.7009 11.2867-8.99379-8.99381c-.39053-.39052-1.02369-.39052-1.41422 0-.39052.39053-.39052 1.02369 0 1.41422l8.22571 8.22569-5.15876 4.299c-.42428.3536-.4816.9841-.12804 1.4084.35357.4243.98413.4816 1.40841.128l4.35979-3.6331v7.8649c0 .388.2245.741.5759.9056s.7662.111 1.0643-.1374l4.753-3.9608 2.8997 2.8997c.3905.3905 1.0237.3905 1.4142 0s.3905-1.0237 0-1.4142l-8.994-8.994c-.004-.0041-.0081-.0082-.0122-.0122zm3.2723 6.1007-2.9732 2.4776v-5.4508z" fill-rule="evenodd"/></g></svg>

<svg width="24" height="24" viewBox="0 0 24 24" fill="none" xmlns="http://www.w3.org/2000/svg">
<path d="M11.5758 1.09442C11.9272 0.929843 12.3421 0.983388 12.6402 1.23179L18.6402 6.23179C18.8682 6.42178 19 6.70323 19 7.00001C19 7.29679 18.8682 7.57824 18.6402 7.76823L15.7219 10.2002C15.2976 10.5537 14.667 10.4964 14.3135 10.0721C13.9599 9.64786 14.0172 9.0173 14.4415 8.66373L16.438 7.00001L13 4.13505V7.00001C13 7.5523 12.5523 8.00001 12 8.00001C11.4477 8.00001 11 7.5523 11 7.00001V2.00001C11 1.61199 11.2245 1.259 11.5758 1.09442Z" fill="#801ED7"/>
<path fill-rule="evenodd" clip-rule="evenodd" d="M12.7009 11.2867L3.70711 2.29289C3.31658 1.90237 2.68342 1.90237 2.29289 2.29289C1.90237 2.68342 1.90237 3.31658 2.29289 3.70711L10.5186 11.9328L5.35984 16.2318C4.93556 16.5854 4.87824 17.2159 5.2318 17.6402C5.58537 18.0645 6.21593 18.1218 6.64021 17.7682L11 14.1351V22C11 22.388 11.2245 22.741 11.5759 22.9056C11.9273 23.0702 12.3421 23.0166 12.6402 22.7682L17.3932 18.8074L20.2929 21.7071C20.6834 22.0976 21.3166 22.0976 21.7071 21.7071C22.0976 21.3166 22.0976 20.6834 21.7071 20.2929L12.7131 11.2989C12.7091 11.2948 12.705 11.2907 12.7009 11.2867ZM15.9732 17.3874L13 19.865V14.4142L15.9732 17.3874Z" fill="#801ED7"/>
</svg>
